X:583
%%etbk:tnset id:317,pos:1,rep:3x,ant:
%%etbk:pldat 2016-08-18T18:21,2016-08-17T15:37,2016-08-16T15:37,2016-08-15T18:47,2016-08-11T18:20,2016-08-10T15:36,2016-08-08T18:15,2016-06-08T16:56,2016-06-07T16:58,2016-06-04T16:12,2016-05-31T17:25,2016-05-19T19:05,2016-05-18T17:06,2016-05-17T16:38,2016-05-16T15:05,2016-05-14T16:32,2016-05-10T18:39,2016-03-02T17:16,2016-03-01T16:27,2016-02-04T19:39,2016-02-03T17:03,2016-02-02T17:54,2016-02-01T18:52,2015-11-20T16:58,2015-11-18T16:40,2015-11-17T16:41,2015-11-15T14:53,2015-11-11T15:50,2015-11-10T17:32,2015-09-10T16:19,2015-09-09T16:35,2015-09-08T18:53,2015-09-03T16:26,2015-09-02T16:26,2015-09-01T16:20,2015-08-31T18:42,2015-08-30T14:38,2015-08-26T15:45,2015-08-06T17:00,2015-08-05T15:32,2015-08-04T16:02,2015-08-03T17:47,2015-07-30T18:20,2015-06-26T16:55,2015-06-17T16:08,2015-06-16T15:49,2015-05-07T18:36,2015-04-16T18:40,2015-04-15T16:05,2015-04-13T18:34,2015-04-12T10:24,2015-04-11T14:03,2015-03-19T18:29,2015-03-16T18:47,2015-03-15T14:08,2015-03-11T15:52,2015-02-22T15:07,2015-02-21T16:27,2015-02-18T15:34,2015-02-17T15:41,2015-02-14T14:03,2015-02-11T15:46,2015-02-04T15:19,2015-01-12T18:29,2015-01-06T19:02,2014-10-16T19:09,2014-10-13T18:05,2014-09-18T18:02,2014-09-13T13:29,2014-08-14T19:15,2014-08-13T18:16,2014-08-12T19:05,2014-08-11T19:20,2014-08-10T14:18,2014-08-05T17:55,2014-08-03T16:59,2014-08-02T15:35,2014-07-31T18:46,2014-07-30T18:56,2014-07-29T19:12,2014-07-27T16:51,2014-07-23T18:21,2014-07-22T19:15,2014-07-20T14:39,2014-07-16T18:33,2014-07-05T13:21,2014-07-02T17:26,2014-06-25T16:35,2014-06-20T16:09,2014-06-19T19:08,2014-06-17T18:51,2014-06-12T18:09,2014-06-09T15:35,2014-06-05T18:46,2014-06-02T18:58,2014-06-01T11:36,2014-05-31T17:14,2014-05-28T14:42
T: As I Roved Out
Z: Piano Box Version by Martin Fleischmann
H: Created 2014-06-09 /  Last Modified 2014-07-30
R: song
M: 2/4
L: 1/8
K:Bdor
|:"bm"FB, B,>B,|"f#m"C/D/C/-B,/ A,>A,|"bm"B,B, DE|"f#m"F<E-E2:|
"bm"FB B/{c}/B/A/B/|"f#m"cB A>A|"A"AA AA,|CE AG|
"bm"FF B,z|"f#m"C/D/C/B,/ A,z|"A"AA F/A/F/E/|C2 B,-A,|"bmsus4"B,4-|B,2 z||


